X: 2
T: Quam pulchra es Cycle / Alma redemptoris mater
N: Derived from Gas2017b-Quam_pulchra_es_Cycle-Alma_redemptoris_mater.krn
C: Gaspar van Weerbeke
%%abc-version 2.0
%%abcx-abcm2ps-target-version 5.9.1 (29 Sep 2008)
%%abc-creator hum2abc beta
%%abcx-conversion-date 2019/02/16 20:36:45
%%abc-edited-by Jesse Rodin
%%abc-edited-by Clare Bokulich 12/05/12
%%abcx-initial-encoding-date 2012/12/05/
%%humdrum-veritas 367319693
%%humdrum-veritas-data 1868025431
%%linebreak <none>
%%barnumbers 0
L: 1/4
M: 4/2
Q: 1/2=120
%%staves [1 2 3 4]
V: 1 clef=treble
V: 2 clef=treble-8
V: 3 clef=treble-8
V: 4 clef=bass
K: F
[V:1] G6E2 | 
[V:2] d4G2c2 | 
[V:3] G8 | 
[V:4] G,4E,2C,2 | 
[V:1] F4G4 | 
[V:2] A2BAc4 | 
[V:3] d4_e4 | 
[V:4] D,4C,4 | 
[V:1] F2B4A2 | 
[V:2] z2f2f2f2 | 
[V:3] d2B2c4 | 
[V:4] B,,2B,2F,4 | 
[V:1] B4z2B2 | 
[V:2] d4g3f | 
[V:3] B4z4 | 
[V:4] z2G,2G,2G,2 | 
[V:1] B2B2B2A2- | 
[V:2] d2g2e2f2 | 
[V:3] G2G2G2A2 | 
[V:4] B,3A,G,2F,2 | 
[V:1] A2G4^F2 | 
[V:2] g2d6 | 
[V:3] B4A4 | 
[V:4] _E,2G,2D,4 | 
[V:1] G4z2B2 | 
[V:2] d4z2d2 | 
[V:3] G4z4 | 
[V:4] z2B,2B,2B,2 | 
[V:1] B2G2B2c2 | 
[V:2] d2d2e2f2- | 
[V:3] B2B2B2A2 | 
[V:4] G,4G,2F,2 | 
[V:1] d2c2B2c2- | 
[V:2] fga2b3a | 
[V:3] B2c2d2_e2 | 
[V:4] B,2F,2B,2_E,2 | 
[V:1] c2B4A2 | 
[V:2] gf_e2f4 | 
[V:3] d2B2c4 | 
[V:4] B,2G,2F,4 | 
[V:1] B4B4 | 
[V:2] d4B4 | 
[V:3] B4G4- | 
[V:4] B,,4_E,4- | 
[V:1] G2E2F2B2 | 
[V:2] c4d2B2 | 
[V:3] G4d4 | 
[V:4] E,4D,4 | 
[V:1] A2c4B2- | 
[V:2] c4d2e2 | 
[V:3] e4d2B2 | 
[V:4] A,4B,2G,2 | 
[V:1] B2A2B4 | 
[V:2] f4d4 | 
[V:3] c4B4 | 
[V:4] F,4z2G,2 | 
[V:1] z2B2B2B2 | 
[V:2] z2d2d2d2 | 
[V:3] z4G2G2 | 
[V:4] G,2G,2B,3A, | 
[V:1] B2A4G2- | 
[V:2] e2f2g2d2- | 
[V:3] G2A2B4 | 
[V:4] G,2F,2_E,2G,2 | 
[V:1] G2^F2G4 | 
[V:2] d4d4 | 
[V:3] A4G4 | 
[V:4] D,4z2G,2- | 
[V:1] D3DD2F2 | 
[V:2] g2g2f4 | 
[V:3] z4B2B2 | 
[V:4] G,G,G,2D4 | 
[V:1] G2A2F2B2- | 
[V:2] z4f4- | 
[V:3] B2c2d4 | 
[V:4] B,2A,2B,2G,B, | 
[V:1] B2A2B2d2 | 
[V:2] f2f2f4 | 
[V:3] c4B4 | 
[V:4] F,4B,,4 | 
[V:1] c2A4G2- | 
[V:2] f3edBc2 | 
[V:3] c4B2G2 | 
[V:4] F,4G,2_E,2 | 
[V:1] G2^F2G4 | 
[V:2] d4z4 | 
[V:3] A4G4 | 
[V:4] D,4z4 | 
[V:1] B2B2B2G2 | 
[V:2] z8 | 
[V:3] z4B2B2 | 
[V:4] z8 | 
[V:1] F2G2A4 | 
[V:2] z8 | 
[V:3] B2G2F4 | 
[V:4] z8 | 
[V:1] B4A2F2 | 
[V:2] z8 | 
[V:3] G4A4 | 
[V:4] z8 | 
[V:1] G4C2F2- | 
[V:2] z8 | 
[V:3] B4A2F2 | 
[V:4] z8 | 
[V:1] F2E2F4 | 
[V:2] z4c2c2 | 
[V:3] G4F4- | 
[V:4] z8 | 
[V:1] F4z4 | 
[V:2] c2c2B3c | 
[V:3] F4z4 | 
[V:4] z4G,2G,2 | 
[V:1] z8 | 
[V:2] d2_e4d2- | 
[V:3] z8 | 
[V:4] G,2G,2F,4 | 
[V:1] G2G2F2F2 | 
[V:2] d2c2d4 | 
[V:3] z8 | 
[V:4] _E,4D,4 | 
[V:1] D3EF3G | 
[V:2] z4a3g | 
[V:3] z4d2d2 | 
[V:4] G,2G,2D,2D,2 | 
[V:1] A2FGA2B2- | 
[V:2] f2f4e2 | 
[V:3] d2d2c2B2 | 
[V:4] D,3_E,F,2G,2 | 
[V:1] B2A2BAGF | 
[V:2] f4d2g2 | 
[V:3] c4B4 | 
[V:4] F,4z2G,2 | 
[V:1] E2A4G2- | 
[V:2] e2f4d2- | 
[V:3] c4d2B2 | 
[V:4] A,2F,4G,2 | 
[V:1] G2^F2[M:6/2]G6 | 
[V:2] d4[M:6/2]c4c2 | 
[V:3] A4[M:6/2]G6 | 
[V:4] D,4[M:6/2]E,6 | 
[V:1] G6F4G2 | 
[V:2] c3Bc2d4e2 | 
[V:3] G6A4B2 | 
[V:4] C,3D,_E,2D,4G,2 | 
[V:1] A6B4c2 | 
[V:2] f3ef2g4a2 | 
[V:3] c6d4A2 | 
[V:4] F,3G,A,2G,4F,2 | 
[V:1] B3AG2A4B2 | 
[V:2] d4B2c4g2 | 
[V:3] G4d2f4d2 | 
[V:4] G,3A,G,2F,4G,2 | 
[V:1] c4d2B4c2 | 
[V:2] g4g2d4c2 | 
[V:3] e4d2g3fe2 | 
[V:4] C,4G,2G,4A,2 | 
[V:1] d3cB2A4d2 | 
[V:2] B2G2B2c4B2 | 
[V:3] d4d2f4d2 | 
[V:4] B,4G,2F,4B,2 | 
[V:1] c4A2B4c2 | 
[V:2] A3Bc2d4g2 | 
[V:3] e4f2g3fe2 | 
[V:4] C2A,4G,4C,2 | 
[V:1] d3cB2A3Bc2 | 
[V:2] g4g2abc'2a2 | 
[V:3] d4d2f4f2 | 
[V:4] G,4B,2F,3G,A,2 | 
[V:1] d4^c2d4z2 | 
[V:2] g2a4f3edc | 
[V:3] d2e4d4z2 | 
[V:4] B,2A,4D,6 | 
[V:1] d4_e2f4=e2 | 
[V:2] B4G2A3Bc2 | 
[V:3] z6d4e2 | 
[V:4] G,4_E,2D,4C,2 | 
[V:1] d4c2B4A2 | 
[V:2] A3Bc2d4e2 | 
[V:3] f4e2d4c2 | 
[V:4] F,4C,2G,4C,2 | 
[V:1] G2F2G2A6 | 
[V:2] d4c2d4f2 | 
[V:3] B2A2G2F6 | 
[V:4] G,2D,2_E,2D,4D,2 | 
[V:1] A4B2c4c2 | 
[V:2] f4d2f4f2 | 
[V:3] F4G2A4A2 | 
[V:4] D,4G,2F,4F,2 | 
[V:1] c3BAG2BA3G | 
[V:2] f3ef2g2e2f2 | 
[V:3] A3Bc2d2c4 | 
[V:4] F,3G,A,2G,2A,2F,2 | 
[V:1] G4^F2G6 |]  
[V:2] d6d6 |]  
[V:3] B2A4G6 |]  
[V:4] G,2D,4G,6 |]  



